usr/share/icons/biglinux-icons-material/32/actions/view-sort-descending-name.svg

<svg xmlns="http://www.w3.org/2000/svg" viewBox="0 0 32 32">
  <defs
     id="defs3051">
    <style
       type="text/css"
       id="current-color-scheme">
      .ColorScheme-Text {
        color:#363636;
      }
      </style>
  </defs>
  <path
     style="fill:currentColor;fill-opacity:1;stroke:none" 
     d="M 8.1757812 4 L 8.2246094 4.9003906 L 12.482422 4.9003906 L 8 11.191406 L 8 12 L 14 12 L 13.966797 11.0625 L 9.5253906 11.0625 L 13.925781 4.8613281 L 13.925781 4 L 8.1757812 4 z M 20.5 13.996094 L 20.5 26.085938 L 16.707031 22.292969 L 16 23 L 21 28 L 22 27 L 26 23 L 25.292969 22.292969 L 21.5 26.085938 L 21.5 13.996094 L 20.5 13.996094 z M 11.080078 13.998047 C 10.046938 13.998047 9.1170449 14.189198 8.2890625 14.572266 L 8.6171875 15.458984 C 8.9727054 15.289397 9.3769933 15.158848 9.8300781 15.066406 C 10.283163 14.96931 10.706616 14.919922 11.101562 14.919922 C 11.686296 14.919922 12.112885 15.059278 12.380859 15.335938 C 12.653512 15.611931 12.789062 16.03112 12.789062 16.59375 L 12.789062 17.349609 L 11.554688 17.351562 C 10.31238 17.351562 9.405969 17.54641 8.8359375 17.939453 C 8.2705839 18.327175 7.9882812 18.939469 7.9882812 19.773438 C 7.9882813 20.471072 8.2018322 21.01516 8.6308594 21.408203 C 9.0645644 21.801246 9.6366205 21.998047 10.347656 21.998047 C 11.4102 21.998047 12.273295 21.594518 12.935547 20.785156 L 13.066406 21.845703 L 13.988281 21.845703 L 13.988281 16.769531 C 13.988281 15.789917 13.735062 15.083959 13.228516 14.652344 C 12.726648 14.216073 12.010305 13.998047 11.080078 13.998047 z M 11.863281 18.148438 L 12.791016 18.148438 L 12.791016 19.84375 C 12.211628 20.692349 11.422887 21.117188 10.423828 21.117188 L 10.421875 21.117188 C 10.057001 21.117188 9.753683 21.000344 9.5097656 20.767578 C 9.2658483 20.535477 9.1425781 20.206257 9.1425781 19.779297 C 9.1425781 19.541875 9.164879 19.341917 9.2089844 19.181641 C 9.25309 19.016709 9.3342252 18.866138 9.4511719 18.730469 C 9.5681185 18.590144 9.7291042 18.482108 9.9335938 18.404297 C 10.138083 18.321832 10.398086 18.258737 10.714844 18.214844 C 11.031602 18.17095 11.414875 18.148438 11.863281 18.148438 z "
     id="path8" 
     class="ColorScheme-Text"
     />
</svg>

<svg xmlns="http://www.w3.org/2000/svg" viewBox="0 0 32 32"><path d="m8.176 4 .049.9h4.257L8 11.191V12h6l-.033-.938H9.525l4.4-6.2V4h-5.75zM20.5 13.996v12.09l-3.793-3.793L16 23l5 5 1-1 4-4-.707-.707-3.793 3.793v-12.09h-1zm-9.42.002c-1.033 0-1.963.191-2.79.574l.327.887c.356-.17.76-.3 1.213-.393a6.087 6.087 0 0 1 1.272-.146c.584 0 1.01.14 1.279.416.273.276.408.695.408 1.258v.756l-1.234.002c-1.243 0-2.149.194-2.72.587-.564.388-.847 1-.847 1.834 0 .698.214 1.242.643 1.635.434.393 1.006.59 1.717.59 1.062 0 1.925-.403 2.588-1.213l.13 1.06h.922V16.77c0-.98-.253-1.686-.76-2.118-.501-.436-1.218-.654-2.148-.654zm.783 4.15h.928v1.696c-.58.848-1.368 1.273-2.367 1.273h-.002c-.365 0-.668-.117-.912-.35-.244-.232-.367-.56-.367-.988 0-.237.022-.437.066-.597a1.135 1.135 0 0 1 .725-.778c.204-.082.464-.145.78-.19.318-.043.7-.066 1.15-.066z" style="fill:currentColor;fill-opacity:1;stroke:none;color:#dedede"/></svg>
